usr/share/icons/biglinux-icons-material/16/actions/align-vertical-top-out.svg

<svg xmlns="http://www.w3.org/2000/svg" viewBox="0 0 16 16"><path d="M9 2v2h5V2H9zM2 5v1h12V5H2zm7 2v7h5V7H9zm1 1h3v5h-3V8zM2 9v5h5V9H2zm1 1h3v3H3v-3z" style="fill:currentColor;fill-opacity:1;stroke:none;color:#dedede"/></svg>

<svg xmlns="http://www.w3.org/2000/svg" viewBox="0 0 16 16">
  <defs id="defs3051">
    <style type="text/css" id="current-color-scheme">
      .ColorScheme-Text {
        color:#dedede;
      }
      </style>
  </defs>
 <path style="fill:currentColor;fill-opacity:1;stroke:none" 
       d="M 9 2 L 9 4 L 14 4 L 14 2 L 9 2 z M 2 5 L 2 6 L 14 6 L 14 5 L 2 5 z M 9 7 L 9 14 L 14 14 L 14 7 L 9 7 z M 10 8 L 13 8 L 13 13 L 10 13 L 10 8 z M 2 9 L 2 14 L 7 14 L 7 9 L 2 9 z M 3 10 L 6 10 L 6 13 L 3 13 L 3 10 z "
     class="ColorScheme-Text"
     />
</svg>
